!!!COM: Unknown
!!!CDT: NA
!!!OTL: National Anthem, Oman
!!!ENC: Davis, Matthew J.
!!Vocal Line Only
**kern
*clefG2
*k[b-e-]
*B-:
*M4/4
=1-
1r
=2
1r
=3
1r
=4
1r
=5
1r
=6
1r
=7
1r
=8
1r
==9
!Coda Symbol
4f
=10
4b-
4b-
4cc
4cc
=11
4.dd
8cc
4b-
4dd
=12
4cc
4b-
4cc
4a
=13
2.b-
8.b-
16cc
=14
4.dd
8dd
4cc
4b-
=15
2.cc
8.cc
16dd
=16
4.ee-
8ee-
4dd
4cc
=17
2.dd
8.ff
16ff
=18
8.ff
16cc
8.cc
16cc
4cc
8.ff
16ff
=19
8.ff
16dd
8.dd
16dd
4dd
8.dd
16dd
=20
4ee-
4ee-
4dd
4cc
=21
2.dd
8.ff
16ff
=22
8.ff
16cc
8.cc
16cc
4cc
8.ff
16ff
=23
8.ff
16dd
8.dd
16dd
4dd
8.cc
16dd
=24
4ee-
4ee-
4dd
4cc
=25
2.b-
!Fine
==26
4f
=27
4.b-
8b-
8b-
16cc
16cc
8.dd
16b-
=28
2.cc
8.f
16f
=29
4.cc
8cc
8.cc
16dd
8.ee-
16cc
=30
2.dd
8.ff
16ff
=31
8.ff
16cc
8.cc
16cc
4cc
8.ff
16ff
=32
8.ff
16dd
8.dd
16dd
4dd
8.ff
16ff
=33
4ff
8.cc
16dd
4ee-
8.dd
16cc
=34
2.b-
!D. Coda Symbol (measure 9) al Fine
==|!
*-
